logos/open-ephys.svg

<?xml version="1.0" encoding="UTF-8"?>
<!DOCTYPE svg PUBLIC "-//W3C//DTD SVG 1.1//EN" "http://www.w3.org/Graphics/SVG/1.1/DTD/svg11.dtd">
<svg xmlns="http://www.w3.org/2000/svg" version="1.1" width="200px" height="200px" style="shape-rendering:geometricPrecision; text-rendering:geometricPrecision; image-rendering:optimizeQuality; fill-rule:evenodd; clip-rule:evenodd" xmlns:xlink="http://www.w3.org/1999/xlink">
<g><path style="opacity:1" fill="#fefefe" d="M -0.5,-0.5 C 66.1667,-0.5 132.833,-0.5 199.5,-0.5C 199.5,66.1667 199.5,132.833 199.5,199.5C 132.833,199.5 66.1667,199.5 -0.5,199.5C -0.5,132.833 -0.5,66.1667 -0.5,-0.5 Z"/></g>
<g><path style="opacity:1" fill="#eb6043" d="M 115.5,58.5 C 114.833,59.5 114.167,60.5 113.5,61.5C 112.833,61.8333 112.167,62.1667 111.5,62.5C 89.052,65.0562 66.7187,68.3895 44.5,72.5C 42.0971,72.448 39.7638,72.7814 37.5,73.5C 36.8333,73.5 36.1667,73.5 35.5,73.5C 34.596,72.791 34.2627,71.791 34.5,70.5C 61.2815,65.9834 88.2815,61.9834 115.5,58.5 Z"/></g>
<g><path style="opacity:1" fill="#6b5e58" d="M 115.5,58.5 C 116.5,58.5 117.5,58.5 118.5,58.5C 118.737,59.791 118.404,60.791 117.5,61.5C 116.167,61.5 114.833,61.5 113.5,61.5C 114.167,60.5 114.833,59.5 115.5,58.5 Z"/></g>
<g><path style="opacity:1" fill="#fefbfb" d="M 111.5,62.5 C 104.5,71.8333 97.5,81.1667 90.5,90.5C 90.1667,90.5 89.8333,90.5 89.5,90.5C 74.3873,84.7768 59.3873,78.7768 44.5,72.5C 66.7187,68.3895 89.052,65.0562 111.5,62.5 Z"/></g>
<g><path style="opacity:1" fill="#63bcdf" d="M 113.5,61.5 C 114.833,61.5 116.167,61.5 117.5,61.5C 116.89,62.391 116.557,63.391 116.5,64.5C 108.458,73.206 100.792,82.206 93.5,91.5C 92.391,91.4431 91.391,91.1098 90.5,90.5C 97.5,81.1667 104.5,71.8333 111.5,62.5C 112.167,62.1667 112.833,61.8333 113.5,61.5 Z"/></g>
<g><path style="opacity:1" fill="#d7d7d4" d="M 116.5,64.5 C 111.878,74.4169 107.211,84.4169 102.5,94.5C 108.569,98.1747 114.569,101.841 120.5,105.5C 118.139,105.326 115.806,104.993 113.5,104.5C 104.988,102.064 96.3211,100.398 87.5,99.5C 87.5,99.1667 87.5,98.8333 87.5,98.5C 90.3915,97.5975 93.3915,97.2641 96.5,97.5C 98.1667,97.5 99.8333,97.5 101.5,97.5C 101.5,96.5 101.5,95.5 101.5,94.5C 98.5568,94.0198 95.8902,93.0198 93.5,91.5C 100.792,82.206 108.458,73.206 116.5,64.5 Z"/></g>
<g><path style="opacity:1" fill="#cacbc8" d="M 34.5,70.5 C 34.2627,71.791 34.596,72.791 35.5,73.5C 30.8333,77.1667 26.1667,80.8333 21.5,84.5C 20.8333,84.5 20.1667,84.5 19.5,84.5C 18.391,84.4431 17.391,84.1098 16.5,83.5C 22.4622,79.1788 28.4622,74.8454 34.5,70.5 Z"/></g>
<g><path style="opacity:1" fill="#dba4d5" d="M 44.5,72.5 C 59.3873,78.7768 74.3873,84.7768 89.5,90.5C 89.0269,91.9063 88.0269,92.573 86.5,92.5C 84.7085,92.634 83.0418,92.3007 81.5,91.5C 66.7078,85.6836 52.0411,79.6836 37.5,73.5C 39.7638,72.7814 42.0971,72.448 44.5,72.5 Z"/></g>
<g><path style="opacity:1" fill="#fcfcfd" d="M 35.5,73.5 C 36.1667,73.5 36.8333,73.5 37.5,73.5C 52.0411,79.6836 66.7078,85.6836 81.5,91.5C 61.8503,88.8577 42.1836,86.5244 22.5,84.5C 22.1667,84.5 21.8333,84.5 21.5,84.5C 26.1667,80.8333 30.8333,77.1667 35.5,73.5 Z"/></g>
<g><path style="opacity:1" fill="#76804f" d="M 16.5,83.5 C 17.391,84.1098 18.391,84.4431 19.5,84.5C 21.3356,86.588 23.6689,87.9213 26.5,88.5C 26.5,88.8333 26.5,89.1667 26.5,89.5C 23.3061,88.2424 19.9728,87.5758 16.5,87.5C 13.8333,86.1667 13.8333,84.8333 16.5,83.5 Z"/></g>
<g><path style="opacity:1" fill="#67a54d" d="M 19.5,84.5 C 20.1667,84.5 20.8333,84.5 21.5,84.5C 21.8333,84.5 22.1667,84.5 22.5,84.5C 31.909,86.5101 41.2423,88.8434 50.5,91.5C 42.4993,90.4999 34.4993,89.4999 26.5,88.5C 23.6689,87.9213 21.3356,86.588 19.5,84.5 Z"/></g>
<g><path style="opacity:1" fill="#6dc1e1" d="M 22.5,84.5 C 42.1836,86.5244 61.8503,88.8577 81.5,91.5C 83.0418,92.3007 84.7085,92.634 86.5,92.5C 89.8333,94.1667 93.1667,95.8333 96.5,97.5C 93.3915,97.2641 90.3915,97.5975 87.5,98.5C 86.1667,98.5 84.8333,98.5 83.5,98.5C 83.5,98.1667 83.5,97.8333 83.5,97.5C 84.7383,97.19 84.7383,96.69 83.5,96C 79.8296,95.4518 76.1629,94.9518 72.5,94.5C 65.105,93.9341 57.7717,92.9341 50.5,91.5C 41.2423,88.8434 31.909,86.5101 22.5,84.5 Z"/></g>
<g><path style="opacity:1" fill="#dba5d4" d="M 16.5,87.5 C 19.9728,87.5758 23.3061,88.2424 26.5,89.5C 27.391,90.1098 28.391,90.4431 29.5,90.5C 42.8333,98.8333 56.1667,107.167 69.5,115.5C 68.8902,116.391 68.5569,117.391 68.5,118.5C 51.0986,108.139 33.7652,97.8053 16.5,87.5 Z"/></g>
<g><path style="opacity:1" fill="#f4d23a" d="M 26.5,89.5 C 26.5,89.1667 26.5,88.8333 26.5,88.5C 34.4993,89.4999 42.4993,90.4999 50.5,91.5C 57.7717,92.9341 65.105,93.9341 72.5,94.5C 75.8088,96.3699 79.4754,97.3699 83.5,97.5C 83.5,97.8333 83.5,98.1667 83.5,98.5C 82.5987,99.2905 81.9321,100.29 81.5,101.5C 81.1667,101.5 80.8333,101.5 80.5,101.5C 63.6949,97.5265 46.6949,93.8598 29.5,90.5C 28.391,90.4431 27.391,90.1098 26.5,89.5 Z"/></g>
<g><path style="opacity:1" fill="#fdfcfc" d="M 29.5,90.5 C 46.6949,93.8598 63.6949,97.5265 80.5,101.5C 77.3046,106.569 73.6379,111.235 69.5,115.5C 56.1667,107.167 42.8333,98.8333 29.5,90.5 Z"/></g>
<g><path style="opacity:1" fill="#698bbe" d="M 89.5,90.5 C 89.8333,90.5 90.1667,90.5 90.5,90.5C 91.391,91.1098 92.391,91.4431 93.5,91.5C 95.8902,93.0198 98.5568,94.0198 101.5,94.5C 101.5,95.5 101.5,96.5 101.5,97.5C 99.8333,97.5 98.1667,97.5 96.5,97.5C 93.1667,95.8333 89.8333,94.1667 86.5,92.5C 88.0269,92.573 89.0269,91.9063 89.5,90.5 Z"/></g>
<g><path style="opacity:1" fill="#f8f8ed" d="M 72.5,94.5 C 76.1629,94.9518 79.8296,95.4518 83.5,96C 84.7383,96.69 84.7383,97.19 83.5,97.5C 79.4754,97.3699 75.8088,96.3699 72.5,94.5 Z"/></g>
<g><path style="opacity:1" fill="#6ba74a" d="M 83.5,98.5 C 84.8333,98.5 86.1667,98.5 87.5,98.5C 87.5,98.8333 87.5,99.1667 87.5,99.5C 87.1667,100.5 86.5,101.167 85.5,101.5C 84.1667,101.5 82.8333,101.5 81.5,101.5C 81.9321,100.29 82.5987,99.2905 83.5,98.5 Z"/></g>
<g><path style="opacity:1" fill="#f8d230" d="M 87.5,99.5 C 96.3211,100.398 104.988,102.064 113.5,104.5C 114.6,105.558 115.934,106.392 117.5,107C 116.944,107.383 116.611,107.883 116.5,108.5C 115.167,108.5 113.833,108.5 112.5,108.5C 103.728,105.977 94.7281,103.977 85.5,102.5C 85.5,102.167 85.5,101.833 85.5,101.5C 86.5,101.167 87.1667,100.5 87.5,99.5 Z"/></g>
<g><path style="opacity:1" fill="#64b7db" d="M 80.5,101.5 C 80.8333,101.5 81.1667,101.5 81.5,101.5C 82.8333,101.5 84.1667,101.5 85.5,101.5C 85.5,101.833 85.5,102.167 85.5,102.5C 82.1518,105.851 79.1518,109.518 76.5,113.5C 74.8437,115.46 73.177,117.46 71.5,119.5C 70.391,119.443 69.391,119.11 68.5,118.5C 68.5569,117.391 68.8902,116.391 69.5,115.5C 73.6379,111.235 77.3046,106.569 80.5,101.5 Z"/></g>
<g><path style="opacity:1" fill="#fcfcfb" d="M 85.5,102.5 C 94.7281,103.977 103.728,105.977 112.5,108.5C 101.376,110.598 90.209,112.598 79,114.5C 77.9302,114.472 77.0968,114.139 76.5,113.5C 79.1518,109.518 82.1518,105.851 85.5,102.5 Z"/></g>
<g><path style="opacity:1" fill="#c2ab45" d="M 113.5,104.5 C 115.806,104.993 118.139,105.326 120.5,105.5C 122.435,106.15 124.435,106.483 126.5,106.5C 126.5,107.833 126.5,109.167 126.5,110.5C 124.833,110.5 123.167,110.5 121.5,110.5C 119.833,109.833 118.167,109.167 116.5,108.5C 116.611,107.883 116.944,107.383 117.5,107C 115.934,106.392 114.6,105.558 113.5,104.5 Z"/></g>
<g><path style="opacity:1" fill="#ccccc9" d="M 112.5,108.5 C 113.833,108.5 115.167,108.5 116.5,108.5C 118.167,109.167 119.833,109.833 121.5,110.5C 104.987,113.788 88.3204,116.788 71.5,119.5C 73.177,117.46 74.8437,115.46 76.5,113.5C 77.0968,114.139 77.9302,114.472 79,114.5C 90.209,112.598 101.376,110.598 112.5,108.5 Z"/></g>
<g><path style="opacity:1" fill="#1e1d1c" d="M 140.5,111.5 C 141.5,111.5 142.5,111.5 143.5,111.5C 143.5,115.833 143.5,120.167 143.5,124.5C 154.708,123.71 159.042,128.876 156.5,140C 156.333,143.5 156.167,147 156,150.5C 155.282,151.451 154.449,151.617 153.5,151C 152.686,144.247 152.186,137.414 152,130.5C 149.519,128.686 146.685,128.02 143.5,128.5C 143.5,136.167 143.5,143.833 143.5,151.5C 142.178,151.67 141.011,151.337 140,150.5C 139.187,137.425 139.354,124.425 140.5,111.5 Z"/></g>
<g><path style="opacity:1" fill="#1d1b1b" d="M 11.5,124.5 C 15.4257,124.047 18.5923,125.38 21,128.5C 21.6667,134.833 21.6667,141.167 21,147.5C 15.5135,153.08 10.5135,152.747 6,146.5C 5.33333,140.5 5.33333,134.5 6,128.5C 7.49981,126.531 9.33314,125.198 11.5,124.5 Z"/></g>
<g><path style="opacity:1" fill="#1b1a19" d="M 52.5,124.5 C 62.1814,124.813 65.8481,129.813 63.5,139.5C 59.1667,139.5 54.8333,139.5 50.5,139.5C 50.0548,142.365 50.7215,144.865 52.5,147C 55.578,146.934 58.578,147.101 61.5,147.5C 55.8406,153.308 51.0072,152.641 47,145.5C 46.3333,140.5 46.3333,135.5 47,130.5C 48.3597,127.977 50.193,125.977 52.5,124.5 Z"/></g>
<g><path style="opacity:1" fill="#181716" d="M 103.5,124.5 C 113.532,124.557 117.199,129.557 114.5,139.5C 110.167,139.5 105.833,139.5 101.5,139.5C 101.055,142.365 101.722,144.865 103.5,147C 106.531,147.495 109.531,147.329 112.5,146.5C 112.208,150.004 110.208,151.671 106.5,151.5C 102.896,151.451 100.396,149.784 99,146.5C 98.3333,140.5 98.3333,134.5 99,128.5C 100.397,126.93 101.897,125.596 103.5,124.5 Z"/></g>
<g><path style="opacity:1" fill="#1c1b1a" d="M 175.5,123.5 C 176.995,123.415 177.995,124.081 178.5,125.5C 174.999,136.839 171.499,148.172 168,159.5C 165.715,162.892 162.548,164.559 158.5,164.5C 158.5,163.167 158.5,161.833 158.5,160.5C 160.722,160.822 162.556,160.155 164,158.5C 164.989,155.544 165.822,152.544 166.5,149.5C 163.851,141.217 161.518,132.884 159.5,124.5C 160.822,124.33 161.989,124.663 163,125.5C 164.394,131.762 166.394,137.762 169,143.5C 170.88,136.696 173.046,130.029 175.5,123.5 Z"/></g>
<g><path style="opacity:1" fill="#1f1d1c" d="M 184.5,123.5 C 187.893,123.062 190.893,123.895 193.5,126C 194.38,127.356 194.714,128.856 194.5,130.5C 191.972,129.977 189.639,128.977 187.5,127.5C 184.508,127.98 183.341,129.647 184,132.5C 187.151,135.407 190.484,138.074 194,140.5C 195.459,149.849 191.626,153.349 182.5,151C 180.167,149.757 179.5,148.091 180.5,146C 182.526,146.463 184.526,147.296 186.5,148.5C 189.055,148.278 190.722,146.945 191.5,144.5C 188.481,140.647 184.981,137.313 181,134.5C 179.662,129.96 180.829,126.293 184.5,123.5 Z"/></g>
<g><path style="opacity:1" fill="#1a1818" d="M 27.5,124.5 C 33.6126,123.41 38.7792,125.077 43,129.5C 43.9094,135.612 43.576,141.612 42,147.5C 38.9597,150.966 35.1264,152.3 30.5,151.5C 30.6655,155.514 30.4988,159.514 30,163.5C 28.9887,164.337 27.8221,164.67 26.5,164.5C 26.1858,151.087 26.5192,137.754 27.5,124.5 Z"/></g>
<g><path style="opacity:1" fill="#171615" d="M 68.5,124.5 C 80.8833,122.883 86.2167,128.217 84.5,140.5C 84.3333,143.833 84.1667,147.167 84,150.5C 83,151.833 82,151.833 81,150.5C 80.6667,143.833 80.3333,137.167 80,130.5C 77.5185,128.686 74.6852,128.02 71.5,128.5C 71.6663,135.841 71.4997,143.174 71,150.5C 70,151.833 69,151.833 68,150.5C 67.1977,141.755 67.3643,133.088 68.5,124.5 Z"/></g>
<g><path style="opacity:1" fill="#201e1e" d="M 119.5,124.5 C 123.605,124.234 127.605,124.734 131.5,126C 133.259,127.008 134.426,128.508 135,130.5C 135.903,136.281 135.57,141.947 134,147.5C 130.96,150.966 127.126,152.3 122.5,151.5C 122.666,155.514 122.499,159.514 122,163.5C 121,164.833 120,164.833 119,163.5C 118.187,150.425 118.354,137.425 119.5,124.5 Z"/></g>
<g><path style="opacity:1" fill="#f5f5f5" d="M 10.5,128.5 C 12.5273,128.338 14.5273,128.505 16.5,129C 17.1258,129.75 17.6258,130.584 18,131.5C 18.6667,135.833 18.6667,140.167 18,144.5C 15.8225,148.065 13.1558,148.399 10,145.5C 9.25987,139.782 9.42654,134.115 10.5,128.5 Z"/></g>
<g><path style="opacity:1" fill="#f5f5f5" d="M 30.5,128.5 C 37.8277,127.161 40.8277,130.161 39.5,137.5C 41.0224,145.187 38.0224,148.52 30.5,147.5C 30.5,141.167 30.5,134.833 30.5,128.5 Z"/></g>
<g><path style="opacity:1" fill="#f8f8f8" d="M 59.5,131.5 C 59.5,132.833 59.5,134.167 59.5,135.5C 56.5,135.5 53.5,135.5 50.5,135.5C 49.8314,130 52.1647,127.833 57.5,129C 58.3805,129.708 59.0472,130.542 59.5,131.5 Z"/></g>
<g><path style="opacity:1" fill="#faf9f9" d="M 110.5,130.5 C 110.5,132.167 110.5,133.833 110.5,135.5C 107.833,135.5 105.167,135.5 102.5,135.5C 102.5,133.833 102.5,132.167 102.5,130.5C 103.312,129.007 104.645,128.34 106.5,128.5C 108.355,128.34 109.688,129.007 110.5,130.5 Z"/></g>
<g><path style="opacity:1" fill="#fcfcfc" d="M 122.5,128.5 C 130.08,127.247 133.08,130.414 131.5,138C 133.08,145.586 130.08,148.753 122.5,147.5C 122.5,141.167 122.5,134.833 122.5,128.5 Z"/></g>
<g><path style="opacity:1" fill="#8d8c8b" d="M 59.5,131.5 C 60.4511,132.919 60.7845,134.585 60.5,136.5C 56.9581,136.813 53.6248,136.479 50.5,135.5C 53.5,135.5 56.5,135.5 59.5,135.5C 59.5,134.167 59.5,132.833 59.5,131.5 Z"/></g>
<g><path style="opacity:1" fill="#969595" d="M 102.5,130.5 C 102.5,132.167 102.5,133.833 102.5,135.5C 105.167,135.5 107.833,135.5 110.5,135.5C 110.5,133.833 110.5,132.167 110.5,130.5C 111.461,132.265 111.795,134.265 111.5,136.5C 108.167,136.5 104.833,136.5 101.5,136.5C 101.205,134.265 101.539,132.265 102.5,130.5 Z"/></g>
</svg>

<svg xmlns="http://www.w3.org/2000/svg" width="200" height="200" style="shape-rendering:geometricPrecision;text-rendering:geometricPrecision;image-rendering:optimizeQuality;fill-rule:evenodd;clip-rule:evenodd"><path style="opacity:1" fill="#fefefe" d="M-.5-.5h200v200H-.5V-.5z"/><path style="opacity:1" fill="#eb6043" d="m115.5 58.5-2 3-2 1a973.91 973.91 0 0 0-67 10 21.445 21.445 0 0 0-7 1h-2c-.904-.709-1.237-1.709-1-3a2058.037 2058.037 0 0 1 81-12z"/><path style="opacity:1" fill="#6b5e58" d="M115.5 58.5h3c.237 1.291-.096 2.291-1 3h-4l2-3z"/><path style="opacity:1" fill="#fefbfb" d="m111.5 62.5-21 28h-1a1310.098 1310.098 0 0 1-45-18 973.91 973.91 0 0 1 67-10z"/><path style="opacity:1" fill="#63bcdf" d="M113.5 61.5h4a5.727 5.727 0 0 0-1 3 440.548 440.548 0 0 0-23 27 5.728 5.728 0 0 1-3-1l21-28 2-1z"/><path style="opacity:1" fill="#d7d7d4" d="M116.5 64.5c-4.622 9.917-9.289 19.917-14 30a2532.82 2532.82 0 0 1 18 11 51.569 51.569 0 0 1-7-1 149.25 149.25 0 0 0-26-5v-1c2.891-.903 5.891-1.236 9-1h5v-3c-2.943-.48-5.61-1.48-8-3a440.548 440.548 0 0 1 23-27z"/><path style="opacity:1" fill="#cacbc8" d="M34.5 70.5c-.237 1.291.096 2.291 1 3l-14 11h-2a5.728 5.728 0 0 1-3-1 6668.076 6668.076 0 0 1 18-13z"/><path style="opacity:1" fill="#dba4d5" d="M44.5 72.5a1310.098 1310.098 0 0 0 45 18c-.473 1.406-1.473 2.073-3 2-1.791.134-3.458-.2-5-1a1732.135 1732.135 0 0 1-44-18 21.445 21.445 0 0 1 7-1z"/><path style="opacity:1" fill="#fcfcfd" d="M35.5 73.5h2a1732.135 1732.135 0 0 0 44 18 1905.37 1905.37 0 0 0-59-7h-1l14-11z"/><path style="opacity:1" fill="#76804f" d="M16.5 83.5c.891.61 1.891.943 3 1 1.836 2.088 4.169 3.421 7 4v1a28.794 28.794 0 0 0-10-2c-2.667-1.333-2.667-2.667 0-4z"/><path style="opacity:1" fill="#67a54d" d="M19.5 84.5h3a418.365 418.365 0 0 1 28 7l-24-3c-2.831-.579-5.164-1.912-7-4z"/><path style="opacity:1" fill="#6dc1e1" d="M22.5 84.5a1905.37 1905.37 0 0 1 59 7c1.542.8 3.209 1.134 5 1l10 5c-3.109-.236-6.109.097-9 1h-4v-1c1.238-.31 1.238-.81 0-1.5a434.749 434.749 0 0 0-11-1.5 187.567 187.567 0 0 1-22-3 418.365 418.365 0 0 0-28-7z"/><path style="opacity:1" fill="#dba5d4" d="M16.5 87.5c3.473.076 6.806.742 10 2 .891.61 1.891.943 3 1l40 25a5.728 5.728 0 0 0-1 3 55784.086 55784.086 0 0 1-52-31z"/><path style="opacity:1" fill="#f4d23a" d="M26.5 89.5v-1l24 3a187.567 187.567 0 0 0 22 3c3.309 1.87 6.975 2.87 11 3v1c-.901.79-1.568 1.79-2 3h-1a1330.337 1330.337 0 0 0-51-11 5.728 5.728 0 0 1-3-1z"/><path style="opacity:1" fill="#fdfcfc" d="M29.5 90.5a1330.337 1330.337 0 0 1 51 11 85.596 85.596 0 0 1-11 14l-40-25z"/><path style="opacity:1" fill="#698bbe" d="M89.5 90.5h1c.891.61 1.891.943 3 1 2.39 1.52 5.057 2.52 8 3v3h-5l-10-5c1.527.073 2.527-.594 3-2z"/><path style="opacity:1" fill="#f8f8ed" d="M72.5 94.5c3.663.452 7.33.952 11 1.5 1.238.69 1.238 1.19 0 1.5-4.025-.13-7.691-1.13-11-3z"/><path style="opacity:1" fill="#6ba74a" d="M83.5 98.5h4v1c-.333 1-1 1.667-2 2h-4c.432-1.21 1.099-2.21 2-3z"/><path style="opacity:1" fill="#f8d230" d="M87.5 99.5a149.25 149.25 0 0 1 26 5c1.1 1.058 2.434 1.892 4 2.5-.556.383-.889.883-1 1.5h-4a227.874 227.874 0 0 0-27-6v-1c1-.333 1.667-1 2-2z"/><path style="opacity:1" fill="#64b7db" d="M80.5 101.5h5v1a71.917 71.917 0 0 0-9 11 575.787 575.787 0 0 0-5 6 5.727 5.727 0 0 1-3-1 5.728 5.728 0 0 1 1-3 85.596 85.596 0 0 0 11-14z"/><path style="opacity:1" fill="#fcfcfb" d="M85.5 102.5a227.874 227.874 0 0 1 27 6 1856.962 1856.962 0 0 1-33.5 6c-1.07-.028-1.903-.361-2.5-1a71.917 71.917 0 0 1 9-11z"/><path style="opacity:1" fill="#c2ab45" d="M113.5 104.5c2.306.493 4.639.826 7 1a19.22 19.22 0 0 0 6 1v4h-5l-5-2c.111-.617.444-1.117 1-1.5-1.566-.608-2.9-1.442-4-2.5z"/><path style="opacity:1" fill="#ccccc9" d="M112.5 108.5h4l5 2a1384.732 1384.732 0 0 1-50 9c1.677-2.04 3.344-4.04 5-6 .597.639 1.43.972 2.5 1a1856.962 1856.962 0 0 0 33.5-6z"/><path style="opacity:1" fill="#1e1d1c" d="M140.5 111.5h3v13c11.208-.79 15.542 4.376 13 15.5l-.5 10.5c-.718.951-1.551 1.117-2.5.5a220.832 220.832 0 0 1-1.5-20.5c-2.481-1.814-5.315-2.48-8.5-2v23c-1.322.17-2.489-.163-3.5-1a258.982 258.982 0 0 1 .5-39z"/><path style="opacity:1" fill="#1d1b1b" d="M11.5 124.5c3.926-.453 7.092.88 9.5 4a90.496 90.496 0 0 1 0 19c-5.486 5.58-10.486 5.247-15-1-.667-6-.667-12 0-18 1.5-1.969 3.333-3.302 5.5-4z"/><path style="opacity:1" fill="#1b1a19" d="M52.5 124.5c9.681.313 13.348 5.313 11 15h-13c-.445 2.865.221 5.365 2 7.5a57.348 57.348 0 0 1 9 .5c-5.66 5.808-10.493 5.141-14.5-2-.667-5-.667-10 0-15 1.36-2.523 3.193-4.523 5.5-6z"/><path style="opacity:1" fill="#181716" d="M103.5 124.5c10.032.057 13.699 5.057 11 15h-13c-.445 2.865.222 5.365 2 7.5 3.031.495 6.031.329 9-.5-.292 3.504-2.292 5.171-6 5-3.604-.049-6.104-1.716-7.5-5-.667-6-.667-12 0-18 1.397-1.57 2.897-2.904 4.5-4z"/><path style="opacity:1" fill="#1c1b1a" d="M175.5 123.5c1.495-.085 2.495.581 3 2l-10.5 34c-2.285 3.392-5.452 5.059-9.5 5v-4c2.222.322 4.056-.345 5.5-2a90.044 90.044 0 0 0 2.5-9 354 354 0 0 1-7-25c1.322-.17 2.489.163 3.5 1a91.464 91.464 0 0 0 6 18 233.78 233.78 0 0 1 6.5-20z"/><path style="opacity:1" fill="#1f1d1c" d="M184.5 123.5c3.393-.438 6.393.395 9 2.5.88 1.356 1.214 2.856 1 4.5a18.962 18.962 0 0 1-7-3c-2.992.48-4.159 2.147-3.5 5a90.68 90.68 0 0 0 10 8c1.459 9.349-2.374 12.849-11.5 10.5-2.333-1.243-3-2.909-2-5 2.026.463 4.026 1.296 6 2.5 2.555-.222 4.222-1.555 5-4a49.74 49.74 0 0 0-10.5-10c-1.338-4.54-.171-8.207 3.5-11z"/><path style="opacity:1" fill="#1a1818" d="M27.5 124.5c6.113-1.09 11.28.577 15.5 5 .91 6.112.576 12.112-1 18-3.04 3.466-6.874 4.8-11.5 4a72.442 72.442 0 0 1-.5 12c-1.011.837-2.178 1.17-3.5 1a411.206 411.206 0 0 1 1-40z"/><path style="opacity:1" fill="#171615" d="M68.5 124.5c12.383-1.617 17.717 3.717 16 16l-.5 10c-1 1.333-2 1.333-3 0l-1-20c-2.481-1.814-5.315-2.48-8.5-2 .166 7.341 0 14.674-.5 22-1 1.333-2 1.333-3 0a116.517 116.517 0 0 1 .5-26z"/><path style="opacity:1" fill="#201e1e" d="M119.5 124.5a31.818 31.818 0 0 1 12 1.5c1.759 1.008 2.926 2.508 3.5 4.5.903 5.781.57 11.447-1 17-3.04 3.466-6.874 4.8-11.5 4a72.367 72.367 0 0 1-.5 12c-1 1.333-2 1.333-3 0a258.982 258.982 0 0 1 .5-39z"/><path style="opacity:1" fill="#f5f5f5" d="M10.5 128.5a18.452 18.452 0 0 1 6 .5 9.465 9.465 0 0 1 1.5 2.5 42.498 42.498 0 0 1 0 13c-2.178 3.565-4.844 3.899-8 1a53.438 53.438 0 0 1 .5-17zM30.5 128.5c7.328-1.339 10.328 1.661 9 9 1.522 7.687-1.478 11.02-9 10v-19z"/><path style="opacity:1" fill="#f8f8f8" d="M59.5 131.5v4h-9c-.669-5.5 1.665-7.667 7-6.5.88.708 1.547 1.542 2 2.5z"/><path style="opacity:1" fill="#faf9f9" d="M110.5 130.5v5h-8v-5c.812-1.493 2.145-2.16 4-2 1.855-.16 3.188.507 4 2z"/><path style="opacity:1" fill="#fcfcfc" d="M122.5 128.5c7.58-1.253 10.58 1.914 9 9.5 1.58 7.586-1.42 10.753-9 9.5v-19z"/><path style="opacity:1" fill="#8d8c8b" d="M59.5 131.5c.951 1.419 1.285 3.085 1 5-3.542.313-6.875-.021-10-1h9v-4z"/><path style="opacity:1" fill="#969595" d="M102.5 130.5v5h8v-5c.961 1.765 1.295 3.765 1 6h-10c-.295-2.235.039-4.235 1-6z"/></svg>
